assets/icons/24px/stroke/tray-24px.svg

<svg width="24" height="24" viewBox="0 0 24 24" fill="none" xmlns="http://www.w3.org/2000/svg">
<path fill-rule="evenodd" clip-rule="evenodd" d="M9.3324 2.99983C9.38784 2.99993 9.44371 3.00003 9.5 3.00003H14.5C14.5563 3.00003 14.6122 2.99993 14.6676 2.99983C15.48 2.99836 16.2022 2.99705 16.8416 3.31675C17.481 3.63645 17.9133 4.21502 18.3996 4.86583C18.4328 4.91025 18.4662 4.955 18.5 5.00003L21 8.33337C21.0225 8.36339 21.0449 8.39314 21.0671 8.42267C21.3977 8.86235 21.6907 9.25197 21.8461 9.71802C22.0014 10.1841 22.0008 10.6716 22.0001 11.2217C22 11.2586 22 11.2958 22 11.3334V14H20V11.3334C20 10.608 19.9882 10.4689 19.9487 10.3505C19.9092 10.232 19.8352 10.1137 19.4 9.53337L16.9 6.20003C16.2509 5.33459 16.1088 5.18638 15.9472 5.10561C15.7857 5.02484 15.5818 5.00003 14.5 5.00003H9.5C8.41819 5.00003 8.21433 5.02484 8.05279 5.10561C7.89125 5.18638 7.74909 5.33459 7.1 6.20003L4.6 9.53337C4.16477 10.1137 4.0908 10.232 4.05132 10.3505C4.01183 10.4689 4 10.608 4 11.3334V14H2V11.3334C2 11.2958 1.99995 11.2586 1.99991 11.2217C1.99922 10.6715 1.9986 10.1841 2.15395 9.71802C2.3093 9.25197 2.60228 8.86235 2.93291 8.42266C2.95512 8.39314 2.97749 8.36338 3 8.33337L5.5 5.00003C5.53378 4.955 5.56722 4.91025 5.6004 4.86583C6.08667 4.21502 6.51896 3.63645 7.15836 3.31675C7.79776 2.99705 8.51999 2.99836 9.3324 2.99983Z" fill="white"/>
<path fill-rule="evenodd" clip-rule="evenodd" d="M8.17384 13.0213C8.0957 13.0049 8.0063 13.0001 7.54648 13.0001H4V16.0001C4 16.9712 4.00213 17.5989 4.06431 18.0614C4.12263 18.4951 4.21677 18.6311 4.2929 18.7072C4.36902 18.7833 4.50497 18.8775 4.93871 18.9358C5.40121 18.998 6.02893 19.0001 7 19.0001H17C17.9711 19.0001 18.5988 18.998 19.0613 18.9358C19.495 18.8775 19.631 18.7833 19.7071 18.7072C19.7832 18.6311 19.8774 18.4951 19.9357 18.0614C19.9979 17.5989 20 16.9712 20 16.0001V13.0001H16.4535C15.9937 13.0001 15.9043 13.0049 15.8262 13.0213C15.7915 13.0286 15.7572 13.0377 15.7235 13.0486C15.6475 13.0731 15.5675 13.1133 15.1683 13.3414C15.1135 13.3727 15.0594 13.4036 15.0061 13.4342C14.0133 14.0026 13.2617 14.4329 12.4243 14.5223C12.1423 14.5523 11.8578 14.5523 11.5757 14.5223C10.7383 14.4329 9.9867 14.0026 8.99391 13.4342C8.94057 13.4036 8.88654 13.3727 8.83175 13.3414C8.43252 13.1133 8.35249 13.0731 8.27652 13.0486C8.2428 13.0377 8.20853 13.0286 8.17384 13.0213ZM7.61724 11C7.96745 10.9998 8.27689 10.9995 8.58378 11.0638C8.68783 11.0856 8.79065 11.1129 8.89181 11.1456C9.19014 11.242 9.45869 11.3958 9.76262 11.5698C9.78292 11.5814 9.80339 11.5931 9.82403 11.6049C11.0552 12.3084 11.4208 12.4944 11.7878 12.5335C11.9289 12.5486 12.0711 12.5486 12.2122 12.5335C12.5792 12.4944 12.9449 12.3084 14.176 11.6049C14.1966 11.5931 14.2171 11.5814 14.2374 11.5698C14.5413 11.3958 14.8099 11.242 15.1082 11.1456C15.2094 11.1129 15.3122 11.0856 15.4162 11.0638C15.7231 10.9995 16.0326 10.9998 16.3828 11C16.4062 11.0001 16.4297 11.0001 16.4535 11.0001H22L22 16.0659C22.0001 16.9524 22.0001 17.7162 21.9179 18.3279C21.8297 18.9834 21.631 19.6117 21.1213 20.1214C20.6117 20.6311 19.9833 20.8298 19.3278 20.9179C18.7161 21.0002 17.9523 21.0001 17.0658 21.0001H6.93417C6.04769 21.0001 5.28387 21.0002 4.67221 20.9179C4.0167 20.8298 3.38835 20.6311 2.87868 20.1214C2.36902 19.6117 2.17028 18.9834 2.08215 18.3279C1.99991 17.7162 1.99995 16.9524 2 16.0659C2 16.044 2 16.0221 2 16.0001V11.0001H7.54648C7.57026 11.0001 7.59384 11.0001 7.61724 11Z" fill="white"/>
</svg>

<svg width="24" height="24" fill="none" xmlns="http://www.w3.org/2000/svg"><path fill-rule="evenodd" clip-rule="evenodd" d="M9.332 3h5.336c.812-.002 1.534-.003 2.174.317.639.32 1.071.898 1.558 1.549l.1.134L21 8.333l.067.09c.33.44.624.829.78 1.295.154.466.154.954.153 1.504V14h-2v-2.667c0-.725-.012-.864-.051-.982-.04-.119-.114-.237-.549-.818L16.9 6.2c-.65-.865-.791-1.014-.953-1.094C15.786 5.025 15.582 5 14.5 5h-5c-1.082 0-1.286.025-1.447.106-.162.08-.304.229-.953 1.094L4.6 9.533c-.435.58-.51.699-.549.818-.04.118-.051.257-.051.982V14H2v-2.667-.111c0-.55-.001-1.038.154-1.504.155-.466.448-.856.779-1.295L3 8.333 5.5 5l.1-.134c.487-.651.919-1.23 1.558-1.55.64-.319 1.362-.318 2.174-.316z" fill="#fff"/><path fill-rule="evenodd" clip-rule="evenodd" d="M8.174 13.021c-.078-.016-.168-.02-.628-.02H4v3c0 .97.002 1.598.064 2.06.059.434.153.57.229.646.076.076.212.17.646.229C5.4 18.998 6.029 19 7 19h10c.971 0 1.599-.002 2.061-.064.434-.058.57-.153.646-.229.076-.076.17-.212.229-.646.062-.462.064-1.09.064-2.06v-3h-3.547c-.46 0-.549.004-.627.02a1.008 1.008 0 0 0-.103.028c-.075.024-.155.064-.555.292l-.162.093c-.993.569-1.744.999-2.582 1.088-.282.03-.566.03-.848 0-.838-.09-1.59-.52-2.582-1.088l-.162-.093c-.4-.228-.48-.268-.555-.292a1.01 1.01 0 0 0-.103-.028zM7.617 11c.35 0 .66 0 .967.064.104.022.207.049.308.082.298.096.567.25.87.424l.062.035c1.231.703 1.597.89 1.964.928.14.016.283.016.424 0 .367-.039.733-.225 1.964-.928l.061-.035c.304-.174.573-.328.871-.424a3.01 3.01 0 0 1 .308-.082c.307-.065.617-.064.967-.064H22v5.066c0 .886 0 1.65-.082 2.262-.088.655-.287 1.284-.797 1.793-.51.51-1.138.709-1.793.797-.612.082-1.376.082-2.262.082H6.934c-.886 0-1.65 0-2.262-.082-.655-.088-1.284-.287-1.793-.797-.51-.51-.709-1.138-.797-1.793C2 17.716 2 16.952 2 16.066V11h5.617z" fill="#fff"/></svg>
